file/budweiser.svg

<svg clip-rule="evenodd" fill-rule="evenodd" stroke-linejoin="round" stroke-miterlimit="1.41421" viewBox="0 0 560 400" xmlns="http://www.w3.org/2000/svg"><path d="m147 0-30.7 47.5-57.7-11.4-58.6 9.3 15.8-24.4c.5.3 1.1.5 1.8.6l-13.7 21.3 54.8-8.7 56.7 11.2 11.9-18.4h.1c1 0 1.8-.4 2.2-.7l-.4-.8-.7-.5 14.4-22.3-72.2 14c.5-.9 1-1.7 1.3-2.2zm-47 18.5c.9 0 1.6-.9 1.6-1.8 0-.8-.5-1.1-1.1-1.1-1 0-1.7 1-1.7 1.8 0 .6.4 1.1 1.2 1.1zm-79-6.3h.5l7.6-11.6 38.6 14.8c.1-.1.1-.2.2-.3.5-.9.9-1.5.9-1.5l2.9-.2c-2.1 3.5-6.1 10-6.4 10.5-1.7 2.9-2.5 4.3-2.5 5.1 0 .3.1.5.4.5.9 0 2.8-1.4 6.6-6.2.3-.4 1.2-1.7 1.6-2.2l2.7-.1c-1.5 2.3-3.6 5.4-4.5 7-.4.6-.6 1-.6 1.2 0 .3.2.4.4.4 1 0 3-1.6 5.8-5.6.7-1 1.2-1.8 1.9-2.8l2.7-.1c-.8 1.2-2.3 3.7-2.5 4-1.3 2.1-2 3.4-2 4 0 .3.1.5.5.5 2 0 4.7-3.6 5.4-5.5 0-1.3.2-2.4.7-3 .2-.3.5-.6 1.1-.6.4 0 .7.2.7.5 0 .5-.6 1.9-1.6 3.6.3.7.9 1.1 1.6 1.3 1.1-2 3.6-5.3 6.9-5.3 1.2 0 1.7.4 1.7 1.3 0 1.7-2.6 4.1-6.2 4.6-.3.6-.6 1.3-.6 2 0 .6.3 1.1 1.2 1.1 2.9 0 6.4-4.4 8.3-6.9.1-.2.9-1.2 1.1-1.5l2.7-.2c-2.3 3.6-3 4.8-3 4.8-.7 1.2-1.6 2.7-1.6 3.2 0 .3.2.5.5.5 1.1 0 3.1-1.8 5.9-4.7 1.2-1.2 2.5-2.6 3.4-3.6.3-1.1.9-1.6 1.6-1.6.6 0 .8.3.8.8 0 .6-.5 1-1 1.1v.5c0 1.1.1 1.9.1 3.1 0 1.1-.2 2.1-.8 3.1 1.4-1.1 4.2-3.8 5.9-5.3 1.7-1.6 3.4-2.2 4.7-2.2 1.1 0 1.7.4 1.7 1.3 0 2.2-3.7 4.3-6.2 4.6-.3.5-.6 1.4-.6 2.1 0 .6.4 1 1 1 2 0 4-2.1 5.6-4 2.5-3.1 3.6-4.8 5.5-4.8 1 0 1.5.5 1.5 1.2 0 .9-.4 1.7-1.3 3.3 2.9-3.7 4.3-4.5 5.3-4.5.7 0 1.2.4 1.2.9-1 .3-2 1.7-2 2.7 0 .3.1.5.2.7.1.1.3.2.6.2s.6-.1 1-.3l.2.5c-.5.3-1 .4-1.7.4-1.3 0-2-.6-2-1.6 0-.6.3-1.3.7-1.9-1.7 1.5-5.2 6-6.4 8l-2.7.1c.4-.6 2.7-4 4.3-6.8.5-.9.8-1.3.8-1.7 0-.2-.1-.3-.3-.3-.9 0-2.3 1.8-4.2 4.2-1.4 1.8-3.9 4.8-7.2 4.8-1.7 0-2.5-.9-2.5-2.1 0-1.1.4-2.1 1-3-.8.7-1.6 1.4-2.4 2.1-1.5 1.4-3.5 3-6.2 3-1.4 0-2.2-.6-2.2-1.3 0-.4.3-.7.6-.7.9 0 .6 1.3 1.8 1.3 1.4 0 2.5-1.3 3.2-5.3.1-.5.3-1.6.5-2.3-2.1 2.2-3.6 3.7-4.2 4.4-1.8 1.8-3.9 3.8-5.9 3.8-1.1 0-1.8-.6-1.8-1.5 0-.6.3-1.4 1-2.8-1.6 1.7-4.1 4.3-7.2 4.3-1.8 0-2.6-.9-2.6-2.2 0-.6.2-1.3.5-2-.7-.2-1.3-.6-1.7-1.2-.8 1.3-1.8 2.6-3.2 3.8-1.4 1.3-2.7 1.7-3.8 1.7s-1.8-.5-1.8-1.5c0-.7.4-1.5.7-2.2-1.5 1.8-3.4 3.7-5.5 3.7-.9 0-1.7-.4-1.7-1.5 0-.7.4-1.4 1-2.5-1.3 1.4-3.4 4-5.8 4-1.1 0-1.7-.6-1.7-1.5 0-.8.4-1.6.7-2.2-.3.4-.6.7-.8 1-1.7 1.9-3.1 2.7-4.6 2.7-1.1 0-1.8-.6-1.8-1.7 0-.5.2-1.2.4-1.7-1.6 1.7-3.4 3.4-5.4 3.4-1.1 0-1.6-.6-1.6-1.4 0-.5.2-1.1.6-1.9l-.6.6c-1.4 1.4-3.1 2.6-4.7 2.6-1 0-1.7-.5-1.7-1.5 0-.7.5-1.9 1.8-3.7l-.8.8c-4 3.8-8 6.1-12.3 6.1-3.2 0-4.2-1.4-4.2-3.1 0-.4.1-.8.1-.8l-.6.7c-1.6 2-2.8 3.1-4.4 3.1-1.3 0-2.4-.6-2.4-1.8 0-.7.4-1.4.9-2.3 1.1-1.8 4.1-6.2 6.3-9.4-1.4.9-3.4 1.6-6 1.6-3.7 0-5.5-1.5-5.5-3.7-.1-2.5 2.6-4.4 7.2-4.5zm90 13.7c2.1-.3 4.7-2.5 4.7-4.1 0-.3-.1-.5-.4-.5-1.2.1-2.7 1.7-4.3 4.6zm-24.5 0c2.1-.3 4.7-2.4 4.7-4.1 0-.3-.2-.5-.5-.5-1.3.1-2.9 2.3-4.2 4.6zm-59.1-1.9c2-2.9 4-6 5.3-7.9-.6-.3-1.2-.6-1.7-.9-.7.9-9 13.2-9.6 14.2-.5.8-.6 1.2-.6 1.4s.1.4.4.4.7-.2 1.2-.6c1.2-1 2.8-3.3 5-6.6zm4-2.7.6-1c1.9 0 3.4 0 4.4-.5 2.4-1.1 3.6-3.8 3.6-5.1 0-.9-.4-1.7-1.6-1.7-1.8 0-3.5 1.8-4.5 3.1.9.5 1.6 1 2 1.4l-.3.5c-.6-.5-1.3-.9-2-1.4-1.2 1.5-3.8 5.6-5.6 8.2 1.2-.8 2.7-1 3.7-1v.7c-3.5.1-5.6 2.4-5.6 4.8 0 1.3.7 2.2 2.6 2.2 4.4 0 7.3-4.7 7.3-7.7 0-1.4-.5-2.6-2.7-2.6h-1c-.4 0-.7.1-.9.1zm31.8 1.1c0-.5-.4-.9-1-.9-1.1 0-2.1.7-3.6 2.5-1.2 1.6-2.5 3.9-2.5 4.9 0 .3.1.6.6.6s1.4-.4 2.7-1.8c1.2-1.3 2.6-3.1 3.6-4.9.2-.1.2-.3.2-.4zm-39.5-10c.4 0 .9.1 1.3.2 1.6.3 2.9.7 4.1 1.1.2-.3.4-.6.6-.9l3.2-.1c-.3.4-.8 1.2-1.5 2l1.8.9c2-2.5 3.9-3.7 6.3-3.7 2.6 0 3.6 1.5 3.6 3 0 1.4-.8 3-1.8 3.9-1.3 1.3-3.1 1.9-4.5 2.2.8.4 2.2 1.1 2.2 3.4 0 1.9-1.1 3.7-2.3 5.1 2.4-1.4 5.8-4.6 7.3-6.5.3-.4 1-1.3 1.3-1.8l2.8-.2s-3.6 5.4-4.4 6.8c-.4.8-.6 1.1-.6 1.3s.1.4.4.4c1.1 0 3.2-1.8 4.6-3.8.7-.9 3.1-4.5 3.1-4.5l2.9-.2c-2.3 3.6-3.1 4.8-3.1 4.8-.8 1.2-1.4 2.3-1.5 2.9-.1.2-.1.3-.1.4 0 .3.1.4.4.4 1.7 0 4.7-3.9 5.6-5.1 1.7-2.2 3.9-3.7 6.2-3.7 1 0 1.7.4 2 1.1.6-1 1.7-2.7 2.6-4.3.1-.2.2-.3.3-.4l-36.7-14.2zm-8.8 4.6c0 .7.2 1.3.7 1.8.3.3.7.6 1.2.7l3.6-5.5c.4 0 .9-.1 1.4-.1h.9l-3.8 5.9h1.5c3.6-.3 5.8-2.2 6.6-3.2 0 0 1.7-2.4 1.8-2.5-1.7-.6-4.1-1.3-7-1.3-4.4.2-6.9 1.9-6.9 4.2zm106.7 29.5c0 .3-.1.6-.3.8s-.5.3-.8.3-.6-.1-.8-.3-.3-.5-.3-.8.1-.6.3-.8.5-.3.8-.3.6.1.8.3.3.4.3.8zm-.2 0c0-.3-.1-.5-.3-.7s-.4-.3-.7-.3-.5.1-.7.3-.3.4-.3.7.1.5.3.7.4.3.7.3.5-.1.7-.3.3-.5.3-.7zm-.4.6h-.3l-.2-.5h-.3v.5h-.3v-1.4h.6c.2 0 .3 0 .4.1s.1.2.1.3c0 .2-.1.3-.3.4zm-.8-.7h.3c.2 0 .3-.1.3-.2s-.1-.2-.2-.2h-.3v.4z" fill="#c8102e" fill-rule="nonzero" transform="matrix(2.44898 0 0 2.44898 100 141.714)"/></svg>

<?xml version="1.0" encoding="UTF-8" standalone="no"?>
<!DOCTYPE svg PUBLIC "-//W3C//DTD SVG 1.1//EN" "http://www.w3.org/Graphics/SVG/1.1/DTD/svg11.dtd">
<svg width="100%" height="100%" viewBox="0 0 560 400" version="1.1" xmlns="http://www.w3.org/2000/svg" xmlns:xlink="http://www.w3.org/1999/xlink" xml:space="preserve" xmlns:serif="http://www.serif.com/" style="fill-rule:evenodd;clip-rule:evenodd;stroke-linejoin:round;stroke-miterlimit:1.41421;">
    <g id="GUIDES" transform="matrix(2.44898,0,0,2.44898,100,141.714)">
        <path d="M147,0L116.3,47.5L58.6,36.1L0,45.4L15.8,21C16.3,21.3 16.9,21.5 17.6,21.6L3.9,42.9L58.7,34.2L115.4,45.4L127.3,27L127.4,27C128.4,27 129.2,26.6 129.6,26.3L129.2,25.5L128.5,25L142.9,2.7L70.7,16.7C71.2,15.8 71.7,15 72,14.5L147,0ZM100,18.5C100.9,18.5 101.6,17.6 101.6,16.7C101.6,15.9 101.1,15.6 100.5,15.6C99.5,15.6 98.8,16.6 98.8,17.4C98.8,18 99.2,18.5 100,18.5ZM21,12.2L21.5,12.2L29.1,0.6L67.7,15.4C67.8,15.3 67.8,15.2 67.9,15.1C68.4,14.2 68.8,13.6 68.8,13.6L71.7,13.4C69.6,16.9 65.6,23.4 65.3,23.9C63.6,26.8 62.8,28.2 62.8,29C62.8,29.3 62.9,29.5 63.2,29.5C64.1,29.5 66,28.1 69.8,23.3C70.1,22.9 71,21.6 71.4,21.1L74.1,21C72.6,23.3 70.5,26.4 69.6,28C69.2,28.6 69,29 69,29.2C69,29.5 69.2,29.6 69.4,29.6C70.4,29.6 72.4,28 75.2,24C75.9,23 76.4,22.2 77.1,21.2L79.8,21.1C79,22.3 77.5,24.8 77.3,25.1C76,27.2 75.3,28.5 75.3,29.1C75.3,29.4 75.4,29.6 75.8,29.6C77.8,29.6 80.5,26 81.2,24.1C81.2,22.8 81.4,21.7 81.9,21.1C82.1,20.8 82.4,20.5 83,20.5C83.4,20.5 83.7,20.7 83.7,21C83.7,21.5 83.1,22.9 82.1,24.6C82.4,25.3 83,25.7 83.7,25.9C84.8,23.9 87.3,20.6 90.6,20.6C91.8,20.6 92.3,21 92.3,21.9C92.3,23.6 89.7,26 86.1,26.5C85.8,27.1 85.5,27.8 85.5,28.5C85.5,29.1 85.8,29.6 86.7,29.6C89.6,29.6 93.1,25.2 95,22.7C95.1,22.5 95.9,21.5 96.1,21.2L98.8,21C96.5,24.6 95.8,25.8 95.8,25.8C95.1,27 94.2,28.5 94.2,29C94.2,29.3 94.4,29.5 94.7,29.5C95.8,29.5 97.8,27.7 100.6,24.8C101.8,23.6 103.1,22.2 104,21.2C104.3,20.1 104.9,19.6 105.6,19.6C106.2,19.6 106.4,19.9 106.4,20.4C106.4,21 105.9,21.4 105.4,21.5L105.4,22C105.4,23.1 105.5,23.9 105.5,25.1C105.5,26.2 105.3,27.2 104.7,28.2C106.1,27.1 108.9,24.4 110.6,22.9C112.3,21.3 114,20.7 115.3,20.7C116.4,20.7 117,21.1 117,22C117,24.2 113.3,26.3 110.8,26.6C110.5,27.1 110.2,28 110.2,28.7C110.2,29.3 110.6,29.7 111.2,29.7C113.2,29.7 115.2,27.6 116.8,25.7C119.3,22.6 120.4,20.9 122.3,20.9C123.3,20.9 123.8,21.4 123.8,22.1C123.8,23 123.4,23.8 122.5,25.4C125.4,21.7 126.8,20.9 127.8,20.9C128.5,20.9 129,21.3 129,21.8C128,22.1 127,23.5 127,24.5C127,24.8 127.1,25 127.2,25.2C127.3,25.3 127.5,25.4 127.8,25.4C128.1,25.4 128.4,25.3 128.8,25.1L129,25.6C128.5,25.9 128,26 127.3,26C126,26 125.3,25.4 125.3,24.4C125.3,23.8 125.6,23.1 126,22.5C124.3,24 120.8,28.5 119.6,30.5L116.9,30.6C117.3,30 119.6,26.6 121.2,23.8C121.7,22.9 122,22.5 122,22.1C122,21.9 121.9,21.8 121.7,21.8C120.8,21.8 119.4,23.6 117.5,26C116.1,27.8 113.6,30.8 110.3,30.8C108.6,30.8 107.8,29.9 107.8,28.7C107.8,27.6 108.2,26.6 108.8,25.7C108,26.4 107.2,27.1 106.4,27.8C104.9,29.2 102.9,30.8 100.2,30.8C98.8,30.8 98,30.2 98,29.5C98,29.1 98.3,28.8 98.6,28.8C99.5,28.8 99.2,30.1 100.4,30.1C101.8,30.1 102.9,28.8 103.6,24.8C103.7,24.3 103.9,23.2 104.1,22.5C102,24.7 100.5,26.2 99.9,26.9C98.1,28.7 96,30.7 94,30.7C92.9,30.7 92.2,30.1 92.2,29.2C92.2,28.6 92.5,27.8 93.2,26.4C91.6,28.1 89.1,30.7 86,30.7C84.2,30.7 83.4,29.8 83.4,28.5C83.4,27.9 83.6,27.2 83.9,26.5C83.2,26.3 82.6,25.9 82.2,25.3C81.4,26.6 80.4,27.9 79,29.1C77.6,30.4 76.3,30.8 75.2,30.8C74.1,30.8 73.4,30.3 73.4,29.3C73.4,28.6 73.8,27.8 74.1,27.1C72.6,28.9 70.7,30.8 68.6,30.8C67.7,30.8 66.9,30.4 66.9,29.3C66.9,28.6 67.3,27.9 67.9,26.8C66.6,28.2 64.5,30.8 62.1,30.8C61,30.8 60.4,30.2 60.4,29.3C60.4,28.5 60.8,27.7 61.1,27.1C60.8,27.5 60.5,27.8 60.3,28.1C58.6,30 57.2,30.8 55.7,30.8C54.6,30.8 53.9,30.2 53.9,29.1C53.9,28.6 54.1,27.9 54.3,27.4C52.7,29.1 50.9,30.8 48.9,30.8C47.8,30.8 47.3,30.2 47.3,29.4C47.3,28.9 47.5,28.3 47.9,27.5L47.3,28.1C45.9,29.5 44.2,30.7 42.6,30.7C41.6,30.7 40.9,30.2 40.9,29.2C40.9,28.5 41.4,27.3 42.7,25.5L41.9,26.3C37.9,30.1 33.9,32.4 29.6,32.4C26.4,32.4 25.4,31 25.4,29.3C25.4,28.9 25.5,28.5 25.5,28.5L24.9,29.2C23.3,31.2 22.1,32.3 20.5,32.3C19.2,32.3 18.1,31.7 18.1,30.5C18.1,29.8 18.5,29.1 19,28.2C20.1,26.4 23.1,22 25.3,18.8C23.9,19.7 21.9,20.4 19.3,20.4C15.6,20.4 13.8,18.9 13.8,16.7C13.7,14.2 16.4,12.3 21,12.2ZM111,25.9C113.1,25.6 115.7,23.4 115.7,21.8C115.7,21.5 115.6,21.3 115.3,21.3C114.1,21.4 112.6,23 111,25.9ZM86.5,25.9C88.6,25.6 91.2,23.5 91.2,21.8C91.2,21.5 91,21.3 90.7,21.3C89.4,21.4 87.8,23.6 86.5,25.9ZM27.4,24C29.4,21.1 31.4,18 32.7,16.1C32.1,15.8 31.5,15.5 31,15.2C30.3,16.1 22,28.4 21.4,29.4C20.9,30.2 20.8,30.6 20.8,30.8C20.8,31 20.9,31.2 21.2,31.2C21.5,31.2 21.9,31 22.4,30.6C23.6,29.6 25.2,27.3 27.4,24ZM31.4,21.3L32,20.3C33.9,20.3 35.4,20.3 36.4,19.8C38.8,18.7 40,16 40,14.7C40,13.8 39.6,13 38.4,13C36.6,13 34.9,14.8 33.9,16.1C34.8,16.6 35.5,17.1 35.9,17.5L35.6,18C35,17.5 34.3,17.1 33.6,16.6C32.4,18.1 29.8,22.2 28,24.8C29.2,24 30.7,23.8 31.7,23.8L31.7,24.5C28.2,24.6 26.1,26.9 26.1,29.3C26.1,30.6 26.8,31.5 28.7,31.5C33.1,31.5 36,26.8 36,23.8C36,22.4 35.5,21.2 33.3,21.2L32.3,21.2C31.9,21.2 31.6,21.3 31.4,21.3ZM63.2,22.4C63.2,21.9 62.8,21.5 62.2,21.5C61.1,21.5 60.1,22.2 58.6,24C57.4,25.6 56.1,27.9 56.1,28.9C56.1,29.2 56.2,29.5 56.7,29.5C57.2,29.5 58.1,29.1 59.4,27.7C60.6,26.4 62,24.6 63,22.8C63.2,22.7 63.2,22.5 63.2,22.4ZM23.7,12.4C24.1,12.4 24.6,12.5 25,12.6C26.6,12.9 27.9,13.3 29.1,13.7C29.3,13.4 29.5,13.1 29.7,12.8L32.9,12.7C32.6,13.1 32.1,13.9 31.4,14.7C32,15 32.6,15.3 33.2,15.6C35.2,13.1 37.1,11.9 39.5,11.9C42.1,11.9 43.1,13.4 43.1,14.9C43.1,16.3 42.3,17.9 41.3,18.8C40,20.1 38.2,20.7 36.8,21C37.6,21.4 39,22.1 39,24.4C39,26.3 37.9,28.1 36.7,29.5C39.1,28.1 42.5,24.9 44,23C44.3,22.6 45,21.7 45.3,21.2L48.1,21C48.1,21 44.5,26.4 43.7,27.8C43.3,28.6 43.1,28.9 43.1,29.1C43.1,29.3 43.2,29.5 43.5,29.5C44.6,29.5 46.7,27.7 48.1,25.7C48.8,24.8 51.2,21.2 51.2,21.2L54.1,21C51.8,24.6 51,25.8 51,25.8C50.2,27 49.6,28.1 49.5,28.7C49.4,28.9 49.4,29 49.4,29.1C49.4,29.4 49.5,29.5 49.8,29.5C51.5,29.5 54.5,25.6 55.4,24.4C57.1,22.2 59.3,20.7 61.6,20.7C62.6,20.7 63.3,21.1 63.6,21.8C64.2,20.8 65.3,19.1 66.2,17.5C66.3,17.3 66.4,17.2 66.5,17.1L29.8,2.9L23.7,12.4ZM14.9,17C14.9,17.7 15.1,18.3 15.6,18.8C15.9,19.1 16.3,19.4 16.8,19.5L20.4,14C20.8,14 21.3,13.9 21.8,13.9L22.7,13.9L18.9,19.8L20.4,19.8C24,19.5 26.2,17.6 27,16.6C27,16.6 28.7,14.2 28.8,14.1C27.1,13.5 24.7,12.8 21.8,12.8C17.4,13 14.9,14.7 14.9,17ZM121.6,46.5C121.6,46.8 121.5,47.1 121.3,47.3C121.1,47.5 120.8,47.6 120.5,47.6C120.2,47.6 119.9,47.5 119.7,47.3C119.5,47.1 119.4,46.8 119.4,46.5C119.4,46.2 119.5,45.9 119.7,45.7C119.9,45.5 120.2,45.4 120.5,45.4C120.8,45.4 121.1,45.5 121.3,45.7C121.5,45.9 121.6,46.1 121.6,46.5ZM121.4,46.5C121.4,46.2 121.3,46 121.1,45.8C120.9,45.6 120.7,45.5 120.4,45.5C120.1,45.5 119.9,45.6 119.7,45.8C119.5,46 119.4,46.2 119.4,46.5C119.4,46.8 119.5,47 119.7,47.2C119.9,47.4 120.1,47.5 120.4,47.5C120.7,47.5 120.9,47.4 121.1,47.2C121.3,47 121.4,46.7 121.4,46.5ZM121,47.1L120.7,47.1L120.5,46.6L120.2,46.6L120.2,47.1L119.9,47.1L119.9,45.7L120.5,45.7C120.7,45.7 120.8,45.7 120.9,45.8C121,45.9 121,46 121,46.1C121,46.3 120.9,46.4 120.7,46.5L121,47.1ZM120.2,46.4L120.5,46.4C120.7,46.4 120.8,46.3 120.8,46.2C120.8,46.1 120.7,46 120.6,46L120.3,46L120.3,46.4L120.2,46.4Z" style="fill:rgb(200,16,46);fill-rule:nonzero;"/>
    </g>
</svg>
